X:1
T:Title
%%score { ( 1 4 ) | ( 2 3 ) }
L:1/8
M:6/8
K:Eb
V:1 treble nm="Grand Piano"
V:4 treble 
V:2 bass 
V:3 bass 
V:1
 z3 z2[Q:1/4=100] [EG]/[FA]/ | [GB]>[GB][GB] [AB][Ac][Ad] | [Be]3 [GB]2 [GB]/[GB]/ | %3
 [GB]>[FA][FA] [Ac][GB][FA] | [EG]3- [EG]2 [GB]/B/ | c>cc [ce][Bd][Ac] | [GB]3 [Ge]2 [Ge]/[Ge]/ | %7
 d>dd edc |[M:5/8] [DB]-[DB]- [DB]3 |[M:1/8] c/d/ |[M:3/4] e2 dc- c/d/e | B4 z2 | %12
 [GB]>[FA] [FA][Ac]- [Ac]/[GB]/[FA] | G4- GB | c2 cd- d/c/d |[M:7/8] e3 z z z2 | %16
[M:3/4] [EB]2 [EB][DB]- [DB]/[Dc]/[DB] |[M:5/8] E-E- E3 |] %18
V:2
 z3 z2 [E,B,]/[E,B,]/ | [E,E]>[E,E][E,E] [F,D][F,E][F,F] | [G,E]3 [E,E]2 [E,B,]/[E,B,]/ | %3
 [B,,B,]>[B,,B,][B,,B,] [B,,B,][C,B,][D,B,] | [E,B,]3- [E,B,]2 z/[K:treble] G/ | %5
 [A,EA]>[A,EA][A,EA] [A,E][K:bass][A,E][A,E] | [E,E]3 [E,B,]2 [E,B,]/[E,B,]/ | %7
 [F,B,F]>[F,B,F][F,B,F] [F,=A,G][F,A,F][F,A,E] |[M:5/8] [B,,B,]-[B,,B,]- [B,,B,]3 | %9
[M:1/8][K:treble] [A,B,E]/[A,B,F]/ |[M:3/4] [G,B,E]2 [G,B,E][A,E]- [A,E]/[K:bass][A,B,E]/[A,CE] | %11
 [G,B,E]2 [F,A,] [E,G,E]2 [E,G,E] | [B,,B,]>[B,,B,] [B,,B,][B,,B,]- [B,,B,]/[C,B,]/[D,B,] | %13
 [E,B,E]4- [E,B,E][E,G,E] | [A,E]2 [A,CE][G,=B,G]- [G,B,G]/[G,=A,G]/[G,B,G] | %15
[M:7/8] C2 z z z z2[K:bass] |[M:3/4] [B,,G,]2 [B,,G,][B,,A,]- [B,,A,]/[B,,A,]/[B,,A,] | %17
[M:5/8] [E,G,]-[E,G,]- [E,G,]3 |] %18
V:3
 x6 | x6 | x6 | x6 | z3 z2 [E,E][K:treble] | x4[K:bass] x2 | x6 | x6 |[M:5/8] x5 | %9
[M:1/8][K:treble] x |[M:3/4] x9/2[K:bass] x3/2 | x6 | x6 | x6 | x6 | %15
[M:7/8] G2- [B,G] [A,CA]3[K:bass] [A,,A,] |[M:3/4] x6 |[M:5/8] x5 |] %18
V:4
 x6 | x6 | x6 | x6 | x6 | x6 | x6 | x6 |[M:5/8] x5 |[M:1/8] x |[M:3/4] x6 | z2 D B2 B | x6 | x6 | %14
 x6 |[M:7/8] z2 _D e3 [Ec] |[M:3/4] x6 |[M:5/8] x5 |] %18

